X:1
T:God’s Love, 76.76 D
T:God’s Love, 76.76 D
T:William Fiske Sherwin, 1872
T:Public Domain Courtesy of the Cyber Hymnal™
C:William Fiske Sherwin, 1872
Z:Public Domain
Z:Courtesy of the Cyber Hymnal™
%%score ( 1 2 ) ( 3 4 )
L:1/8
Q:1/4=110
M:4/4
K:Ab
V:1 treble 
V:2 treble 
V:3 bass 
V:4 bass 
V:1
 [CE]2 [CF][CG] [CA]2 [CB]2 | [DA]4 [DG]2 [B,F]2 | E2 ([DG][CA]) [DB]2 [Ec]2 | ([DB]4 [CA]2) z2 | %4
 [CA]2 [DB][Ec] [Fd]2 [Ec]2 | [=DB]4 [DF]2 [FA]2 | [EG]2 [EA]2 [DF]2 [DG]2 | [CA]6 z2 | %8
 [CA]2 [CF][CG] [FA]2 [FB]2 | [=Ec]4 [EG]2 [Gc]2 | [F=B]2 [=Ec]2 [F=d]2 [FB]2 | [=Ec]6 z2 | %12
 [Ec]2 [CA][DB] [Ec]2 [Ec]2 | (e2 d2) [Fc]2 [FB]2 | [EA]2 ([DG][CA]) [Ec]2 [DB]2 | [CA]8 |] %16
V:2
 x8 | x8 | E2 x6 | x8 | x8 | x8 | x8 | x8 | x8 | x8 | x8 | x8 | x8 | F4 x4 | x8 | x8 |] %16
V:3
 [A,,E,]2 [A,,E,][A,,E,] [A,,E,]2 [A,,E,]2 | [B,,E,]4 [B,,E,]2 [D,G,]2 | %2
 [C,A,]2 (B,A,) [E,G,]2 [E,G,]2 | [A,,A,]6 z2 | [A,,E,]2 [A,,E,][A,,A,] [A,,A,]2 [A,,A,]2 | %5
 [B,,F,]4 [B,,B,]2 [=D,B,]2 | [E,B,]2 [C,A,]2 [D,A,]2 [B,,E,]2 | [A,,E,]6 z2 | %8
 [F,A,]2 [F,A,][F,A,] [D,A,]2 [D,G,]2 | [C,G,]4 [C,C]2 [=E,C]2 | [G,=D]2 [G,C]2 [F,=B,]2 [G,D]2 | %11
 (C4 G,2) z2 | [A,,A,]2 [A,,E,][A,,E,] [A,,A,]2 [=A,,_G,]2 | (F,2 B,2) [C,=A,]2 [D,B,]2 | %14
 [E,C]2 (B,A,) [E,G,]2 [E,G,]2 | [A,,A,]8 |] %16
V:4
 x8 | x8 | x2 E,2 x4 | x8 | x8 | x8 | x8 | x8 | x8 | x8 | x8 | C,6 x2 | x8 | B,,4 x4 | x2 E,2 x4 | %15
 x8 |] %16

